X: 114
T: John Anderson My Jo
%T: the Boys That Wore the Green
C:
R: march
S: email from Darlene Wigton 2022-7-10
Z: 2022 John Chambers <jc:trillian.mit.edu>
M: C|
L: 1/8
K: Am	% and C
% = = = = = = = = = =
V: 1 staves=2
A>G |\
E2A2 A2AB | c3d c2dc | B3A G2G2 | G4 G2(ED) |
E2A2 A2AB | c3d c2dc | e3d (cBc)d | e4 e2 |]
[| gf |\
e2 (e/f/)g c3d | cdef g2dc | B3A GABc | d4 d2cd |
e2(dc) c2(de) | (fe)(dc) B2(A^G) | (AB)(cd) edcB | A4 A2 |]
% = = = = = = = = = =
V: 2 clef=bass middle=d
z2 |\
"Am"a2e2 A2e2 | A4 a4 | "G"g2d2 B2G2 | g2d2 G2z2 |
"Am"A4 A2e2 | a2e2 A2z2 | "C"c'2g2 e2g2 | c'2g2 c2 |]
[| z2 |\
"C"c'2g2 e2g2 | "C"e2c'2 b2g2 | "G"G2d2 g2G2 | "G"B2G2 g2G2 |
"C"c4 e4 | "Dm"d2a2 "E"^g2e2 | "Am"c2A2 "E"e2E2 | "Am"A6 |]
